lib/flags/s/894.svg

<svg xmlns="http://www.w3.org/2000/svg" fill="none" viewBox="0 0 16 12"><mask id="894_svg__a" width="16" height="12" x="0" y="0" mask-type="alpha" maskUnits="userSpaceOnUse"><path fill="#fff" d="M0 0H16V12H0z"/></mask><g mask="url(#894_svg__a)"><path fill="#F7FCFF" fill-rule="evenodd" d="M0 0H16V12H0V0Z" clip-rule="evenodd"/><path fill="#5EAA22" fill-rule="evenodd" d="M0 0V12H16V0H0Z" clip-rule="evenodd"/><mask id="894_svg__b" width="16" height="12" x="0" y="0" mask-type="alpha" maskUnits="userSpaceOnUse"><path fill="#fff" fill-rule="evenodd" d="M0 0V12H16V0H0Z" clip-rule="evenodd"/></mask><g mask="url(#894_svg__b)"><path fill="#FF8126" d="M13 5H16V12H13z"/><path fill="#272727" d="M10 5H13V12H10z"/><path fill="#C51918" d="M7 5H10V12H7z"/><path fill="#FF8126" fill-rule="evenodd" d="M10.8076 1.55846C11.0783 1.65797 10.8076 1.8103 10.8076 1.8103C10.8076 1.8103 10.7542 1.74819 10.7542 1.69632C10.7542 1.64446 10.5468 1.69632 10.4399 1.88453C10.3386 2.0629 10.5253 2.06238 10.7217 2.06184C10.7325 2.06181 10.7433 2.06178 10.7542 2.06178C10.8651 2.06178 11.0386 2.05086 11.2 2.04069C11.3403 2.03186 11.4714 2.0236 11.5443 2.0236C11.7009 2.0236 11.7751 2.0236 11.9818 1.88453C12.1161 1.79413 12.5604 1.68347 12.8908 1.6012C13.0686 1.55691 13.2134 1.52084 13.259 1.50059C13.3894 1.44273 13.1286 1.74819 13.1286 1.74819C13.1286 1.74819 14.1346 1.34245 14.3362 1.2039C14.4607 1.1183 14.4043 1.19136 14.3122 1.31065C14.2552 1.38443 14.1846 1.47591 14.1346 1.55846C14.0496 1.6991 14.2228 1.56501 14.4152 1.41609C14.5183 1.33629 14.6269 1.25224 14.7042 1.2039C14.9258 1.06535 14.6479 1.44117 14.5257 1.55846C14.4035 1.67574 14.8125 1.55846 14.9542 1.44117C15.0584 1.35486 14.9632 1.50572 14.8831 1.63272C14.8543 1.67831 14.8275 1.72082 14.8126 1.74819L14.8102 1.75255C14.7554 1.8527 14.738 1.88453 14.8692 1.88453C15.0023 1.88453 14.5257 2.25506 14.5257 2.25506C14.5257 2.25506 14.6677 2.23252 14.5257 2.47924C14.442 2.62467 14.0344 2.77158 13.7035 2.89086C13.4731 2.97392 13.2798 3.04359 13.259 3.09002C13.2217 3.17339 12.8505 3.26995 12.6775 3.31495C12.6158 3.331 12.5794 3.34049 12.5922 3.34049C12.641 3.34049 12.7222 3.40227 12.6341 3.40227C12.5459 3.40227 12.3911 3.4521 12.3911 3.4521C12.3911 3.4521 12.4726 3.4521 12.3911 3.56819C12.3521 3.6238 12.2837 3.61499 12.2357 3.60882C12.1835 3.6021 12.1555 3.59849 12.2158 3.68428C12.27 3.76141 12.2899 3.78964 12.2837 3.79787C12.2765 3.8072 12.2356 3.79075 12.1728 3.79075C12.1167 3.79075 12.0567 3.76673 11.9937 3.74151C11.9241 3.71363 11.8509 3.68428 11.7751 3.68428C11.6365 3.68428 11.7756 3.78239 11.8625 3.84367C11.8661 3.84623 11.8697 3.84873 11.8731 3.85115C11.9506 3.90601 11.9183 3.9059 11.7779 3.90542C11.7638 3.90537 11.7485 3.90532 11.7322 3.90532C11.6451 3.90532 11.5983 3.89582 11.5731 3.89072C11.5467 3.88536 11.5443 3.88486 11.5443 3.90532C11.5443 3.92494 11.4786 3.89763 11.3997 3.86476C11.3179 3.83073 11.2218 3.79075 11.1695 3.79075C11.0667 3.79075 11.3876 4.00296 11.3876 4.00296C11.3876 4.00296 11.2204 3.9489 11.1299 3.90532C11.0784 3.88055 11.1438 3.9974 11.2029 4.10288C11.2477 4.18297 11.2888 4.25651 11.2724 4.25651C11.2599 4.25651 11.2323 4.24329 11.201 4.22822C11.1365 4.1973 11.0559 4.1586 11.0559 4.21043C11.0559 4.28753 11.1299 4.34481 11.2204 4.34481C11.3109 4.34481 11.3258 4.46522 11.2724 4.46522C11.2538 4.46522 11.231 4.45725 11.2091 4.4496C11.1679 4.43519 11.1299 4.42191 11.1299 4.46522C11.1299 4.49316 11.146 4.51407 11.1646 4.53828C11.1901 4.57151 11.2204 4.61094 11.2204 4.68323C11.2204 4.80819 11.0857 4.82597 11.1299 4.74316C11.1741 4.66034 10.9766 4.46044 10.9766 4.55828V4.68323C10.9766 4.77158 10.9595 4.77722 10.9329 4.78604C10.9166 4.79147 10.8966 4.7981 10.8747 4.82597C10.842 4.86758 10.8371 4.89125 10.8343 4.90451C10.8316 4.91764 10.831 4.92056 10.8076 4.92056C10.7891 4.92056 10.7737 4.89295 10.7529 4.85584C10.7211 4.79887 10.6768 4.71952 10.5895 4.68323C10.5066 4.64876 10.5023 4.67378 10.4947 4.71701C10.4892 4.74893 10.4819 4.79079 10.4399 4.82597C10.3769 4.87884 10.3943 4.90077 10.4152 4.92699C10.427 4.94184 10.4399 4.95806 10.4399 4.98207C10.4399 5.04845 10.3296 4.91569 10.3296 4.82597C10.3296 4.73626 10.2042 4.61691 10.2042 4.68323C10.2042 4.74956 10.2042 4.82597 10.1398 4.82597C10.1088 4.82597 10.1076 4.84809 10.1061 4.87779C10.1044 4.90979 10.1023 4.95061 10.0618 4.98207C10.022 5.01306 10.0228 4.99654 10.0248 4.96024C10.0266 4.9255 10.0294 4.87264 9.99837 4.82597C9.95956 4.76758 9.99199 4.67721 10.0085 4.63125C10.0189 4.6021 10.023 4.59082 9.99837 4.61691C9.93577 4.68326 9.85595 4.68325 9.80194 4.68323L9.7998 4.68323C9.77261 4.68323 9.74886 4.71781 9.73196 4.74241C9.71528 4.76668 9.70529 4.78122 9.70529 4.74316C9.70529 4.66654 9.78528 4.46522 9.9358 4.46522C10.0517 4.46522 10.1101 4.41819 10.1603 4.37778C10.1752 4.36573 10.1894 4.35426 10.2042 4.34481C10.2687 4.30367 10.2042 4.24999 10.1398 4.21043C10.1105 4.19246 10.1211 4.13452 10.1415 4.08277C10.1772 4.05976 10.2042 4.03136 10.2042 4.00296C10.2042 3.96738 10.1659 4.02062 10.1415 4.08277C10.0951 4.11258 10.0342 4.13334 9.99837 4.13334C9.96399 4.13334 9.98551 4.07115 10.0124 3.99334C10.0352 3.9276 10.0618 3.8507 10.0618 3.79075C10.0618 3.73367 10.0713 3.68404 10.0779 3.64972C10.0864 3.60535 10.09 3.58657 10.0618 3.61033C10.0268 3.63983 9.8405 3.60738 9.71344 3.58526C9.65898 3.57578 9.6154 3.56819 9.59931 3.56819C9.57556 3.56819 9.59469 3.52356 9.61371 3.47918C9.63765 3.42331 9.66142 3.36784 9.59931 3.40227C9.50196 3.45622 9.30399 3.45394 9.17878 3.4525C9.16062 3.45229 9.144 3.4521 9.12943 3.4521C9.0562 3.4521 9.10646 3.38753 9.13341 3.3529C9.1488 3.33313 9.15659 3.32312 9.12943 3.34049C9.05472 3.38827 8.98044 3.40227 8.8964 3.40227C8.85852 3.40227 8.84769 3.37981 8.83584 3.35523C8.8214 3.32528 8.80544 3.29218 8.73718 3.29272C8.61291 3.29368 8.58505 3.29175 8.51662 3.23778C8.481 3.20969 8.501 3.19318 8.51235 3.1838C8.52281 3.17516 8.52594 3.17257 8.47149 3.17257H8.13434C7.96638 3.17257 8.13485 3.04177 8.19539 3.04177C8.25593 3.04177 8.32611 2.92407 8.19539 2.97692C8.11172 3.01075 8.0222 3.00127 7.91636 2.99007C7.85684 2.98377 7.79215 2.97692 7.72044 2.97692C7.52121 2.97692 7.48302 2.88486 7.60082 2.88486C7.71863 2.88486 7.72557 2.81742 7.54247 2.81742C7.4276 2.81742 7.33315 2.78624 7.26276 2.763C7.22095 2.74919 7.18762 2.73819 7.16354 2.73819C7.09893 2.73819 7.02907 2.64742 7.16354 2.64742C7.29802 2.64742 7.47051 2.57176 7.32335 2.57176C7.24021 2.57176 7.10157 2.52752 6.98094 2.48903C6.88805 2.45939 6.80585 2.43316 6.76789 2.43316C6.73875 2.43316 6.78432 2.42338 6.84502 2.41035C6.96607 2.38437 7.14732 2.34547 6.91617 2.34547C6.66933 2.34547 6.4107 2.14431 6.23206 2.00536C6.15954 1.94895 6.1002 1.9028 6.0602 1.88453C5.92165 1.82126 6.0602 1.69632 6.1001 1.74819C6.14001 1.80005 6.41946 1.87981 6.29842 1.8103C6.17738 1.74079 6.1001 1.6225 6.0602 1.55846C6.02029 1.49441 6.05101 1.45018 6.1001 1.50059C6.1492 1.55101 6.37574 1.69632 6.37574 1.69632C6.37574 1.69632 6.25453 1.55846 6.15831 1.34245C6.06209 1.12644 6.25453 1.17906 6.41946 1.34245C6.58438 1.50584 6.739 1.54907 6.81664 1.55846C6.89427 1.56784 6.739 1.44077 6.58956 1.34245C6.44012 1.24413 6.47404 0.892158 6.58956 1.0327C6.64966 1.10581 6.93438 1.24515 7.21285 1.38143C7.46966 1.5071 7.72116 1.63018 7.78628 1.69632C7.89897 1.81079 7.80829 1.64015 7.71007 1.4553C7.68999 1.4175 7.66959 1.37912 7.65055 1.34245C7.58534 1.21688 7.84743 1.35956 8.14561 1.52188C8.36033 1.63878 8.59378 1.76587 8.73718 1.8103C8.83597 1.8409 8.95395 1.88991 9.07183 1.93887C9.36268 2.05969 9.65295 2.18027 9.65295 2.0236C9.65295 1.80344 9.91897 1.45894 10.2042 1.34245C10.3853 1.26852 10.4705 1.33535 10.5779 1.41949C10.6396 1.46793 10.7087 1.5221 10.8076 1.55846ZM10.5007 4.14244C10.5651 4.14244 10.5475 3.47346 10.5475 3.47346C10.5475 3.47346 10.7375 3.88369 10.7375 4.06121C10.7375 4.14228 10.7318 4.16624 10.7336 4.18962C10.7357 4.21744 10.7486 4.24443 10.7945 4.36576C10.8414 4.48952 10.8103 4.47612 10.7257 4.43957C10.6575 4.41016 10.5546 4.36576 10.4297 4.36576C10.1494 4.36576 10.4363 4.14244 10.5007 4.14244Z" clip-rule="evenodd"/></g></g></svg>

<svg xmlns="http://www.w3.org/2000/svg" fill="none" viewBox="0 0 16 12"><mask id="894_svg__a" width="16" height="12" x="0" y="0" maskUnits="userSpaceOnUse"><path fill="#fff" d="M0 0h16v12H0z"/></mask><g mask="url(#894_svg__a)"><path fill="#F7FCFF" fill-rule="evenodd" d="M0 0h16v12H0V0z" clip-rule="evenodd"/><path fill="#5EAA22" fill-rule="evenodd" d="M0 0v12h16V0H0z" clip-rule="evenodd"/><mask id="894_svg__b" width="16" height="12" x="0" y="0" maskUnits="userSpaceOnUse"><path fill="#fff" fill-rule="evenodd" d="M0 0v12h16V0H0z" clip-rule="evenodd"/></mask><g mask="url(#894_svg__b)"><path fill="#FF8126" d="M13 5h3v7h-3z"/><path fill="#272727" d="M10 5h3v7h-3z"/><path fill="#C51918" d="M7 5h3v7H7z"/><path fill="#FF8126" fill-rule="evenodd" d="M10.808 1.558c.27.1 0 .252 0 .252s-.054-.062-.054-.114c0-.052-.207 0-.314.189-.101.178.085.177.282.177h.032c.111 0 .285-.011.446-.021.14-.01.271-.017.344-.017.157 0 .231 0 .438-.14.134-.09.578-.2.909-.283a3.88 3.88 0 00.368-.1c.13-.058-.13.247-.13.247s1.006-.406 1.207-.544c.125-.086.068-.013-.024.107a2.871 2.871 0 00-.177.247c-.085.141.088.007.28-.142a4.22 4.22 0 01.29-.212c.22-.139-.057.237-.18.354-.122.118.287 0 .43-.117.103-.086.008.065-.072.192a2.535 2.535 0 00-.07.115l-.003.005c-.055.1-.072.132.06.132s-.344.37-.344.37.142-.022 0 .224c-.084.146-.492.293-.822.412-.23.083-.424.153-.445.199-.037.083-.409.18-.582.225-.061.016-.098.025-.085.025.049 0 .13.062.042.062s-.243.05-.243.05.082 0 0 .116c-.039.056-.107.047-.155.04-.053-.006-.08-.01-.02.076.054.077.074.106.068.114-.008.01-.048-.007-.111-.007a.51.51 0 01-.18-.05c-.069-.027-.142-.057-.218-.057-.139 0 0 .098.088.16l.01.007c.078.055.045.055-.095.054h-.046c-.087 0-.134-.01-.159-.014-.026-.006-.029-.006-.029.014s-.065-.007-.144-.04c-.082-.034-.178-.074-.23-.074-.103 0 .218.212.218.212s-.168-.054-.258-.098c-.052-.024.014.092.073.198.045.08.086.154.07.154a.265.265 0 01-.072-.029c-.065-.03-.145-.07-.145-.018 0 .078.074.135.164.135.09 0 .106.12.052.12-.018 0-.041-.008-.063-.015-.041-.015-.08-.028-.08.015 0 .028.017.05.036.073.025.034.055.073.055.145 0 .125-.134.143-.09.06.044-.083-.153-.283-.153-.185v.125c0 .089-.018.094-.044.103a.106.106 0 00-.058.04c-.033.042-.038.065-.04.079-.003.013-.004.016-.027.016-.019 0-.034-.028-.055-.065-.032-.057-.076-.136-.164-.173-.082-.034-.087-.01-.094.034a.163.163 0 01-.055.109c-.063.053-.046.075-.025.101.012.015.025.031.025.055 0 .066-.11-.066-.11-.156s-.126-.21-.126-.143 0 .143-.064.143c-.031 0-.032.022-.034.052-.002.032-.004.073-.044.104-.04.031-.04.015-.037-.022a.213.213 0 00-.027-.134c-.038-.058-.006-.149.01-.195.01-.029.015-.04-.01-.014-.062.066-.142.066-.196.066H9.8c-.027 0-.051.035-.068.06-.017.024-.027.038-.027 0 0-.076.08-.278.23-.278.117 0 .175-.047.225-.087a.498.498 0 01.044-.033c.065-.041 0-.095-.064-.135-.03-.018-.019-.075.002-.127.035-.023.062-.052.062-.08 0-.036-.038.018-.063.08a.314.314 0 01-.143.05c-.034 0-.012-.062.014-.14a.7.7 0 00.05-.202c0-.057.01-.107.016-.141.008-.045.012-.063-.016-.04-.035.03-.221-.003-.349-.025a.967.967 0 00-.114-.017c-.023 0-.004-.044.015-.089.024-.056.047-.111-.015-.077-.097.054-.295.052-.42.05h-.05c-.073 0-.023-.064.004-.1.016-.019.024-.029-.004-.012a.408.408 0 01-.233.062c-.037 0-.048-.022-.06-.047-.015-.03-.03-.063-.099-.062-.124 0-.152-.001-.22-.055-.036-.028-.016-.045-.005-.054.01-.009.014-.011-.04-.011h-.338c-.168 0 0-.131.061-.131.06 0 .131-.118 0-.065-.083.034-.173.024-.279.013-.06-.006-.124-.013-.196-.013-.199 0-.237-.092-.12-.092.119 0 .126-.068-.058-.068a.861.861 0 01-.28-.054.376.376 0 00-.098-.025c-.065 0-.135-.09 0-.09.134 0 .307-.076.16-.076-.084 0-.222-.044-.343-.083a1.033 1.033 0 00-.213-.056c-.03 0 .016-.01.077-.023.121-.026.302-.065.071-.065-.247 0-.505-.2-.684-.34a1.144 1.144 0 00-.172-.12c-.138-.064 0-.189.04-.137.04.052.32.132.198.062a.724.724 0 01-.238-.252c-.04-.064-.009-.108.04-.057.05.05.276.195.276.195s-.121-.138-.218-.354c-.096-.216.097-.163.261 0 .165.164.32.207.398.216.077.01-.078-.117-.227-.216-.15-.098-.116-.45 0-.31.06.074.344.213.623.35.257.125.508.248.573.314.113.115.022-.056-.076-.24l-.06-.114c-.065-.125.197.018.496.18.214.117.448.244.591.288.099.03.217.08.335.129.29.12.581.241.581.085 0-.22.266-.565.551-.682.181-.073.266-.007.374.077.062.049.13.103.23.14zM10.5 4.142c.064 0 .046-.669.046-.669s.19.41.19.588c0 .081-.005.105-.003.129.002.027.015.054.06.176.047.124.016.11-.068.074a.725.725 0 00-.296-.074c-.28 0 .006-.224.07-.224z" clip-rule="evenodd"/></g></g></svg>
